X: 1
T: Lass That Made The Bed For Me, The
M: 4/4
L: 1/8
R: reel
K: Ador
A2cA BGGB|cAA2-Aefd|eAcA BGGB|cABG A3A:|
cdef gagf|edef gze2-|edef gfe2-|efdf e2e2:|
